contributed-vectors/learn_anywhere_alt.svg

<svg xmlns="http://www.w3.org/2000/svg" width="192" height="192" fill="none"><g clip-path="url(#a)"><g clip-path="url(#b)"><path fill="#fff" d="M172 29.6v133.9c0 5.3-4.3 9.6-9.6 9.6H28.6c-5.3 0-9.6-4.3-9.6-9.6V29.6c0-5.3 4.3-9.6 9.6-9.6h133.9c5.2 0 9.5 4.3 9.5 9.6Z"/><path fill="#9ABEFF" d="M121.4 90.4 88.1 62.3c-6.3-5.3-15.9-.8-15.9 7.4v49.5h13c1.8 0 3.3 1.5 3.3 3.3V133l32.9-27.8c4.6-3.8 4.6-10.9 0-14.8Zm-14.3 10.7-14.6 12.3c-2.8 2.3-7 .4-7-3.2V85.5c0-3.6 4.2-5.6 7-3.2l14.6 12.3c2 1.7 2 4.8 0 6.5Z"/><path fill="#F9DE81" d="M88.5 122.5V133l-16.3-13.8h13c1.8 0 3.3 1.5 3.3 3.3Z"/></g></g><defs><clipPath id="a"><path fill="#fff" d="M0 0h192v192H0z"/></clipPath><clipPath id="b"><path fill="#fff" d="M19 20h153v153H19z"/></clipPath></defs></svg>

<svg width="192" height="192" viewBox="0 0 192 192" fill="none" xmlns="http://www.w3.org/2000/svg">
<g clip-path="url(#clip0)">
<g clip-path="url(#clip1)">
<path d="M172 29.6V163.5C172 168.8 167.7 173.1 162.4 173.1H28.6C23.3 173.1 19 168.8 19 163.5V29.6C19 24.3 23.3 20 28.6 20H162.5C167.7 20 172 24.3 172 29.6Z" fill="white"/>
<path d="M121.4 90.4L88.1 62.3C81.8 57 72.2 61.5 72.2 69.7V119.2H85.2C87 119.2 88.5 120.7 88.5 122.5V133L121.4 105.2C126 101.4 126 94.3 121.4 90.4ZM107.1 101.1L92.5 113.4C89.7 115.7 85.5 113.8 85.5 110.2V85.5C85.5 81.9 89.7 79.9 92.5 82.3L107.1 94.6C109.1 96.3 109.1 99.4 107.1 101.1Z" fill="#9ABEFF"/>
<path d="M88.5 122.5V133L72.2 119.2H85.2C87 119.2 88.5 120.7 88.5 122.5Z" fill="#F9DE81"/>
</g>
</g>
<defs>
<clipPath id="clip0">
<rect width="192" height="192" fill="white"/>
</clipPath>
<clipPath id="clip1">
<rect width="153" height="153" fill="white" transform="translate(19 20)"/>
</clipPath>
</defs>
</svg>
